X: 12363
T: False Proof, The
R: jig
M: 6/8
K: Bminor
|:Bdf fef|fed c2f|edc B2B|ABd cAF
GBd f2f|fed c2f|edc B2A|BcA B3:|
|:zdc BcA|GFE F2E|EDE G2E|EFG dcA
zdc BBA|GFE F2E|EFG e2d|cBA B3:|
|:BdB fBg|Bag fed|eed c2f|ede edB
BAB fBg|Baf b z b|bag f/g/ag|1 fed ecA:|2 fed eed||

